X:143
T:Rakes of West Meath. JJo4.143
B:J.Johnson Choice Collection Vol 4, 1748
Z:vmp.Anne Wride 2014 www.village-music-project.org.uk
M:9/8
Q:1/4=100
L:1/8
K:D
A2 (B/c/) dAG FED | ABc dAF G2E | ABc dAG FGA | =cBc cEF G2E :|
|: FDF AFA EFG | FDF AFA G2E | FDF AFA (E/F/G)E | (A/B/=c)A GEC G2E :|
|:d2g (f/g/a)f (e/f/g)e | d2g (f/g/a)f g2e | d2g (f/g/a)f (e/f/g)e | =cBc cEF G2E :|
W:First Man turn the 2d. Wo. single and then his Partner, his Partner the same
W:Cross over below the 3d. Cu. and turn
W:Lead to the top and cast off. Back to Back and Right and Left with the 2d. Cu.
